icons/3_Generic/Privacy.svg

<svg width="1024" height="1024" viewBox="0 0 1024 1024" fill="none" xmlns="http://www.w3.org/2000/svg">
<g clip-path="url(#clip0_3_431)">
<path d="M512 1024C794.77 1024 1024 794.77 1024 512C1024 229.23 794.77 0 512 0C229.23 0 0 229.23 0 512C0 794.77 229.23 1024 512 1024Z" fill="#8C72BD"/>
<path d="M512 224C352.94 224 224 352.94 224 512C224 671.06 352.94 800 512 800C671.06 800 800 671.06 800 512C799.81 353.02 670.98 224.19 512 224ZM512 766.12C371.65 766.12 257.88 652.35 257.88 512C257.88 371.65 371.65 257.88 512 257.88C652.35 257.88 766.12 371.65 766.12 512C765.96 652.28 652.28 765.96 512 766.12ZM619.29 466.83C619.29 407.57 571.25 359.54 511.99 359.54C452.73 359.54 404.7 407.58 404.7 466.84C404.7 496.58 417.04 524.98 438.78 545.27L406.7 625.8C400.93 640.29 408 656.71 422.48 662.48C425.806 663.801 429.352 664.48 432.93 664.48H591.05C606.64 664.48 619.28 651.84 619.28 636.24C619.28 632.66 618.6 629.12 617.28 625.79L585.2 545.26C595.936 535.205 604.498 523.058 610.359 509.568C616.221 496.077 619.257 481.529 619.28 466.82L619.29 466.83ZM554.97 526.35C551.914 528.56 549.683 531.726 548.629 535.346C547.575 538.967 547.758 542.835 549.15 546.34L582.72 630.59H441.4L474.97 546.34C477.84 539.13 475.44 530.89 469.15 526.35C436.28 502.62 428.87 456.73 452.61 423.86C476.34 390.99 522.23 383.58 555.1 407.32C587.97 431.05 595.38 476.94 571.64 509.81C567.047 516.173 561.463 521.757 555.1 526.35H554.96H554.97Z" fill="white"/>
</g>
<defs>
<clipPath id="clip0_3_431">
<rect width="1024" height="1024" fill="white"/>
</clipPath>
</defs>
</svg>

<svg xmlns="http://www.w3.org/2000/svg" viewBox="0 0 1024 1024">
   <circle cx="512" cy="512" r="512" style="fill:#6750a4"/>
   <path d="M512 224c-159.06 0-288 128.94-288 288s128.94 288 288 288 288-128.94 288-288c-.19-158.98-129.02-287.81-288-288Zm0 542.12c-140.35 0-254.12-113.77-254.12-254.12S371.65 257.88 512 257.88 766.12 371.65 766.12 512C765.96 652.28 652.28 765.96 512 766.12Zm107.29-299.29c0-59.26-48.04-107.29-107.3-107.29S404.7 407.58 404.7 466.84c0 29.74 12.34 58.14 34.08 78.43L406.7 625.8c-5.77 14.49 1.3 30.91 15.78 36.68a28.3 28.3 0 0 0 10.45 2h158.12c15.59 0 28.23-12.64 28.23-28.24 0-3.58-.68-7.12-2-10.45l-32.08-80.53a107.706 107.706 0 0 0 34.08-78.44Zm-64.32 59.52a16.95 16.95 0 0 0-5.82 19.99l33.57 84.25H441.4l33.57-84.25c2.87-7.21.47-15.45-5.82-19.99-32.87-23.73-40.28-69.62-16.54-102.49 23.73-32.87 69.62-40.28 102.49-16.54 32.87 23.73 40.28 69.62 16.54 102.49a73.33 73.33 0 0 1-16.54 16.54h-.14Z" style="fill:#fff"/>
</svg>
